X:1
T:The shadow of you smile
C:Johnny Mandel
M:4/4
L:1/8
K:G
%%text bossa nova
%%staves (chords melody)
P:A
V:chords
xx4 || "F#m7"x4 x4 | "B7"x4 x4 | "Em7"x4 x4 | "A7"x4 x4 |
"Am7"x4 x4 | "D7"x4 x4 | "Gmaj7"x4 x4 | "(Cmaj7)"x4 x4 ||
V:melody
B, EFGB || ^C6F2 | ^D6=C2 | B,8- | B,3B, EFGB |
E6A2 | F4D2B2- | B8- | B2z2 cBAG ||
P:B
V:chords
"F#m7b5"x4 x4 | "B7"x4 x4 | "Em7"x4 x4 | "-/D"x4 x4 |
"C#m7b5"x4 x4 | "F#7"x4 x4 | "F#m7"x4 x4 | "B7"x4 x4 ||
V:melody
A6C2 | B,6A2 | G8- | G4 BAGF |
G6B,2 | ^A,6G2 | F8- | F2zB, EFGB ||
P:A
V:chords
"F#m7"x4 x4 | "B7"x4 x4 | "Em7"x4 x4 | "A7"x4 x4 |
"Am7"x4 x4 | "D7"x4 x4 | "Bm7b5"x4 x4 | "E7"x4 x4 ||
V:melody
^C6F2 | ^D6=C2 | B,8- | B,3B, EFGB |
E6c2 | A4F2d2- | d8- | d4 edcB ||
P:B
V:chords
"Am7"x4 x4 | "Cm6"x4 x4 | "Bm7"x4 x4 | "E7"x4 x4 |
"A7"x4 x4 | "D7"x4 x4 | "G6"x4 "(C7"x4 | "B7)"x4 x4 |]
V:melody
c3E c4- | c4 dcBA | B3D B4- | B4 cBA^G |
A3^C A4- | A3=C BAGF | G8 | z8 |]
